X: 10065
T: MARY BRETON'S WALTZ
C: Bob McQuillen 4 April 93
B: Bob's Note Book 10 #65
%R: waltz
Z: 2020 John Chambers <jc:trillian.mit.edu>
M: 3/4
L: 1/8
K: G
de \
| "G"d2 B3 A | "G7"G2 B2 AB | "C"A2 G3 F | E2 G3 E | "G"D3 E D2 | "Em"D2 G2 B2 | "C6"d2 c3 B | "D7"A4 de |
| "G"d2 B3 A | "G7"G2 B2 AB | "C"A2 G3 F | E4 GE | "G"D3 E D2 | "G"D2 B2 c2 | "D7"B3 G A2 | "G"G4 :|
|: FG \
| "D7"A3 B A2 | A2 G2 A2 | "G"B3 c B2 | B2 G2 B2 | "D"d3 e d2 | d2 ^c2 d2 | "A7"e2 f2 g2 | "D7"a4 ga |
| "G"b3 a g2 | "G7"b3 a g2 | "C"a2 g3 f | "G"e2 d4 | "C"e3 f g2 | "G"d g3 B2 | "D7"A3 G A2 | "G"G4 :|
%%begintext align
%% Mary Breton is a
%% wonderful teacher at Conval High School in Peterborough
%% where I taught for so many years - I am so glad this waltz
%% came along with your name on it, Mary - You are
%% a very dear friend - and thanks for teaching me how
%% to type all those years ago!
%%endtext

%%sep 1 1 500

%%sep 1 1 500

